X: 3120
T: BONNIE LASS OF FISHERROW
Q:"Reel."
R: Reel.
%R:reel
B: James Kerr "Merry Melodies" v.3 p.14 #120
Z: 2016 John Chambers <jc:trillian.mit.edu>
N: The D in bar 1 should be E, as in bar 5.
M: C
L: 1/8
K: C
uA |\
GDcG AcGE | CEGE D/D/D A2 |\
GEGc AFAc | BGBd c/c/c (cA) |\
GEcG AcGE | CEGE D/D/D A2 |\
GEGc AFAc | BGBd c/c/c c |]
f |\
ecgc egca | gcec Bddf |\
ecgc egca | gede c/c/c (cf) |\
ecgc egca | gcec Bddf |\
ecGc Acfa | gede c/c/c c |]

%%sep 1 1 500
%%sep 1 1 500

